public/accessibility.svg

<svg width="22" height="22" viewBox="0 0 22 22" fill="none" xmlns="http://www.w3.org/2000/svg">
<path d="M12.5 5.5C12.5 6.32843 11.8284 7 11 7C10.1716 7 9.5 6.32843 9.5 5.5C9.5 4.67157 10.1716 4 11 4C11.8284 4 12.5 4.67157 12.5 5.5Z" fill="#0F0F0F"/>
<path d="M5.05132 7.68377C4.87667 8.20772 5.15983 8.77404 5.68377 8.94868C5.85906 9.0069 6.03576 9.06101 6.21265 9.11408C6.5363 9.21117 6.98911 9.34055 7.50746 9.47014C8.08908 9.61555 8.78094 9.76845 9.4783 9.87242C9.43226 10.7652 9.32052 11.4057 9.21662 11.8307L7.10557 16.0528C6.85858 16.5468 7.05881 17.1474 7.55279 17.3944C8.04677 17.6414 8.64744 17.4412 8.89443 16.9472L11 12.7361L13.1056 16.9472C13.3526 17.4412 13.9532 17.6414 14.4472 17.3944C14.9412 17.1474 15.1414 16.5468 14.8944 16.0528L12.7834 11.8307C12.6795 11.4057 12.5677 10.7652 12.5217 9.87242C13.2191 9.76845 13.9109 9.61555 14.4925 9.47014C15.0109 9.34055 15.4637 9.21117 15.7873 9.11408C15.963 9.06138 16.1384 9.00748 16.3125 8.94991C16.8261 8.77948 17.1201 8.19797 16.9487 7.68377C16.7741 7.15988 16.2078 6.87672 15.6839 7.05127C15.5277 7.10294 15.3703 7.15114 15.2127 7.19842C14.9113 7.28883 14.4891 7.40945 14.0075 7.52986C13.0216 7.77633 11.8709 8 11 8C10.1291 8 8.97843 7.77633 7.99254 7.52986C7.51089 7.40945 7.0887 7.28883 6.78735 7.19842C6.63167 7.15172 6.47632 7.1038 6.32186 7.05318C5.80235 6.88137 5.22544 7.1614 5.05132 7.68377Z" fill="#0F0F0F"/>
<path fill-rule="evenodd" clip-rule="evenodd" d="M22 11C22 17.0751 17.0751 22 11 22C4.92487 22 0 17.0751 0 11C0 4.92487 4.92487 0 11 0C17.0751 0 22 4.92487 22 11ZM2.00683 11C2.00683 15.9668 6.03321 19.9932 11 19.9932C15.9668 19.9932 19.9932 15.9668 19.9932 11C19.9932 6.03321 15.9668 2.00683 11 2.00683C6.03321 2.00683 2.00683 6.03321 2.00683 11Z" fill="#0F0F0F"/>
</svg>

<svg width="22" height="22" fill="none" xmlns="http://www.w3.org/2000/svg"><path d="M12.5 5.5a1.5 1.5 0 1 1-3 0 1.5 1.5 0 0 1 3 0Z" fill="#0F0F0F"/><path d="M5.051 7.684a1 1 0 0 0 .633 1.265 29.277 29.277 0 0 0 1.824.521c.581.146 1.273.298 1.97.402-.046.893-.157 1.534-.261 1.959l-2.111 4.222a1 1 0 1 0 1.788.894L11 12.737l2.106 4.21a1 1 0 1 0 1.788-.894l-2.11-4.222c-.104-.425-.216-1.066-.262-1.959a21.13 21.13 0 0 0 1.97-.402 29.237 29.237 0 0 0 1.82-.52c.514-.17.808-.752.637-1.266a1 1 0 0 0-1.265-.633 27.294 27.294 0 0 1-1.676.479C13.021 7.776 11.87 8 11 8c-.87 0-2.022-.224-3.007-.47a27.254 27.254 0 0 1-1.671-.477 1.01 1.01 0 0 0-1.27.63Z" fill="#0F0F0F"/><path fill-rule="evenodd" clip-rule="evenodd" d="M22 11c0 6.075-4.925 11-11 11S0 17.075 0 11 4.925 0 11 0s11 4.925 11 11ZM2.007 11a8.993 8.993 0 1 0 17.986 0 8.993 8.993 0 0 0-17.986 0Z" fill="#0F0F0F"/></svg>
